X: 1
T:Hanly's
T:Patsy Hanley's
R:reel
H:Also played in D, see #729
D:Desi Wilkinson: The Three Piece Flute
D:Marcas \'O Murch\'u: \'O Bh\'eal go B\'eal
Z:id:hn-reel-668
M:C|
K:C
GAEG GAGA|(3Bcd ed cA~A2|EG~G2 A2~A2|cA{c}GE {A}EDD2:|
|:eg~g2 {a}gede|g2{c'}ae {a}ged2|1 eg~g2 {a}ged2|
(3Bcd ed cA~A2:|2 g2eg {c'}ageg|{a}gede cA~A2||
